assets/images/ywc18/icon/ywc_twitter_hover.svg

<svg width="72" height="72" viewBox="0 0 72 72" fill="none" xmlns="http://www.w3.org/2000/svg">
<g filter="url(#filter0_bdi)">
<circle cx="36" cy="36" r="25" stroke="#F2F6FC" stroke-width="2"/>
<path d="M42.6661 24.3334C38.8803 24.3334 35.8018 27.4119 35.8018 31.1976C35.8018 31.4251 35.8587 31.6477 35.8809 31.8702C31.2001 31.4226 27.0608 29.1675 24.2493 25.7181C24.1182 25.5524 23.9155 25.4634 23.7028 25.4782C23.4927 25.4931 23.3047 25.6142 23.2009 25.7972C22.6099 26.8135 22.2711 27.9831 22.2711 29.2392C22.2711 30.76 22.8151 32.1521 23.6558 33.2945C23.4927 33.2228 23.3146 33.1832 23.1613 33.0967C22.966 32.9928 22.7311 32.9978 22.5407 33.1115C22.3503 33.2252 22.234 33.4305 22.2316 33.6506V33.7297C22.2316 36.0615 23.4383 38.0866 25.2186 39.3279C25.1988 39.3254 25.179 39.3329 25.1593 39.3279C24.9417 39.2908 24.7216 39.3675 24.5757 39.5331C24.4298 39.6988 24.3828 39.9288 24.4471 40.139C25.1543 42.3372 26.9594 44.0162 29.1947 44.6294C27.4144 45.6877 25.3497 46.3108 23.1217 46.3108C22.6396 46.3108 22.1772 46.2861 21.7172 46.2317C21.4205 46.1922 21.1362 46.3652 21.0372 46.6471C20.9359 46.929 21.0471 47.2431 21.3018 47.3988C24.1578 49.2311 27.5479 50.3068 31.1927 50.3068C37.1 50.3068 41.7339 47.839 44.8421 44.3129C47.9503 40.7868 49.5699 36.2073 49.5699 31.9295C49.5699 31.749 49.555 31.5735 49.5501 31.3954C50.7098 30.5077 51.7459 29.4667 52.5569 28.2502C52.7176 28.0152 52.7003 27.7012 52.5149 27.4836C52.3319 27.266 52.0228 27.1992 51.7656 27.3204C51.4392 27.4663 51.0585 27.4811 50.7172 27.5974C51.1673 26.9965 51.553 26.3486 51.7854 25.6192C51.8646 25.3694 51.778 25.095 51.5728 24.9318C51.3675 24.771 51.0807 24.7513 50.8557 24.8873C49.7751 25.5277 48.5783 25.9777 47.3148 26.2522C46.0883 25.1049 44.4736 24.3334 42.6661 24.3334ZM42.6661 25.5994C44.2807 25.5994 45.7396 26.2893 46.7609 27.3798C46.9142 27.538 47.1392 27.6048 47.3543 27.5578C48.1802 27.3946 48.9641 27.1547 49.7281 26.8457C49.288 27.4391 48.744 27.946 48.106 28.3293C47.8167 28.4702 47.6807 28.804 47.7871 29.1082C47.8909 29.4099 48.2074 29.5854 48.5214 29.5162C49.1545 29.4395 49.7182 29.1824 50.3216 29.0216C49.7801 29.6077 49.1866 30.1368 48.5412 30.6042C48.3657 30.7328 48.2692 30.9405 48.2841 31.1581C48.294 31.4152 48.3039 31.6699 48.3039 31.9295C48.3039 35.8859 46.7856 40.181 43.8925 43.4623C40.9995 46.7436 36.7513 49.0407 31.1927 49.0407C28.668 49.0407 26.2843 48.4819 24.1306 47.4977C26.8011 47.2925 29.264 46.3479 31.252 44.7877C31.4597 44.622 31.5413 44.345 31.4573 44.0928C31.3732 43.8406 31.1408 43.6675 30.8762 43.6601C28.7892 43.623 27.041 42.4089 26.1088 40.6928C26.1434 40.6928 26.1731 40.6928 26.2077 40.6928C26.8333 40.6928 27.4515 40.6137 28.0276 40.4555C28.3045 40.3739 28.4949 40.1167 28.4851 39.8274C28.4752 39.5381 28.2699 39.2908 27.988 39.229C25.7354 38.774 24.0465 36.9393 23.6558 34.6594C24.2938 34.8795 24.9466 35.0526 25.6538 35.0748C25.9431 35.0921 26.2052 34.9116 26.2942 34.6372C26.3833 34.3627 26.2745 34.061 26.0297 33.9077C24.5262 32.9013 23.5372 31.1877 23.5372 29.2392C23.5372 28.5172 23.7251 27.8545 23.9724 27.2215C27.1374 30.6957 31.5685 33.0027 36.5733 33.2549C36.7711 33.2648 36.964 33.1832 37.0926 33.0324C37.2212 32.8791 37.2706 32.6763 37.2261 32.4834C37.1297 32.073 37.0678 31.6378 37.0678 31.1976C37.0678 28.0968 39.5653 25.5994 42.6661 25.5994Z" fill="#F2F6FC" stroke="#F2F6FC" stroke-width="0.475"/>
</g>
<defs>
<filter id="filter0_bdi" x="0" y="0" width="72" height="72" filterUnits="userSpaceOnUse" color-interpolation-filters="sRGB">
<feFlood flood-opacity="0" result="BackgroundImageFix"/>
<feGaussianBlur in="BackgroundImage" stdDeviation="2.5"/>
<feComposite in2="SourceAlpha" operator="in" result="effect1_backgroundBlur"/>
<feColorMatrix in="SourceAlpha" type="matrix" values="0 0 0 0 0 0 0 0 0 0 0 0 0 0 0 0 0 0 127 0"/>
<feOffset/>
<feGaussianBlur stdDeviation="5"/>
<feColorMatrix type="matrix" values="0 0 0 0 1 0 0 0 0 0.364706 0 0 0 0 0.160784 0 0 0 1 0"/>
<feBlend mode="normal" in2="effect1_backgroundBlur" result="effect2_dropShadow"/>
<feBlend mode="normal" in="SourceGraphic" in2="effect2_dropShadow" result="shape"/>
<feColorMatrix in="SourceAlpha" type="matrix" values="0 0 0 0 0 0 0 0 0 0 0 0 0 0 0 0 0 0 127 0" result="hardAlpha"/>
<feOffset dy="4"/>
<feGaussianBlur stdDeviation="10"/>
<feComposite in2="hardAlpha" operator="arithmetic" k2="-1" k3="1"/>
<feColorMatrix type="matrix" values="0 0 0 0 1 0 0 0 0 0.364706 0 0 0 0 0.160784 0 0 0 0.6 0"/>
<feBlend mode="normal" in2="shape" result="effect3_innerShadow"/>
</filter>
</defs>
</svg>

<svg width="72" height="72" fill="none" xmlns="http://www.w3.org/2000/svg"><g filter="url(#filter0_bdi)" stroke="#F2F6FC"><circle cx="36" cy="36" r="25" stroke-width="2"/><path d="M42.67 24.33a6.87 6.87 0 00-6.87 6.87c0 .23.06.45.08.67a17.02 17.02 0 01-11.63-6.15.64.64 0 00-1.05.08 6.81 6.81 0 00-.93 3.44c0 1.52.55 2.91 1.39 4.05-.17-.07-.35-.1-.5-.2a.63.63 0 00-.93.56v.08c0 2.33 1.2 4.36 2.99 5.6h-.06a.63.63 0 00-.71.8 6.88 6.88 0 004.74 4.5 11.83 11.83 0 01-7.47 1.6.63.63 0 00-.42 1.17 18.26 18.26 0 009.9 2.9c5.9 0 10.53-2.46 13.64-5.99 3.11-3.52 4.73-8.1 4.73-12.38l-.02-.53c1.16-.9 2.2-1.93 3-3.15a.63.63 0 00-.78-.93c-.33.15-.71.16-1.05.28.45-.6.83-1.25 1.07-1.98a.63.63 0 00-.93-.73 11.86 11.86 0 01-3.55 1.36 6.81 6.81 0 00-4.64-1.92zm0 1.27a5.6 5.6 0 014.1 1.78c.14.16.37.22.58.18.83-.17 1.61-.4 2.38-.71-.44.59-.99 1.1-1.62 1.48a.63.63 0 00.41 1.19c.63-.08 1.2-.34 1.8-.5-.54.59-1.13 1.12-1.78 1.58a.63.63 0 00-.26.56l.02.77a17.8 17.8 0 01-4.4 11.53 16.45 16.45 0 01-12.7 5.58c-2.53 0-4.92-.56-7.07-1.54a13.1 13.1 0 007.12-2.71.63.63 0 00-.37-1.13 5.54 5.54 0 01-4.77-2.97h.1a6.9 6.9 0 001.82-.23.63.63 0 00-.04-1.23 5.56 5.56 0 01-4.33-4.57c.63.22 1.29.4 2 .41a.63.63 0 00.37-1.16 5.6 5.6 0 01-2.5-4.67c0-.72.2-1.39.44-2.02a18.27 18.27 0 0012.6 6.03c.2.01.4-.07.52-.22a.63.63 0 00.14-.55 5.59 5.59 0 015.44-6.88z" fill="#F2F6FC" stroke-width=".47"/></g><defs><filter id="filter0_bdi" x="0" y="0" width="72" height="72" filterUnits="userSpaceOnUse" color-interpolation-filters="sRGB"><feFlood flood-opacity="0" result="BackgroundImageFix"/><feGaussianBlur in="BackgroundImage" stdDeviation="2.5"/><feComposite in2="SourceAlpha" operator="in" result="effect1_backgroundBlur"/><feColorMatrix in="SourceAlpha" values="0 0 0 0 0 0 0 0 0 0 0 0 0 0 0 0 0 0 127 0"/><feOffset/><feGaussianBlur stdDeviation="5"/><feColorMatrix values="0 0 0 0 1 0 0 0 0 0.364706 0 0 0 0 0.160784 0 0 0 1 0"/><feBlend in2="effect1_backgroundBlur" result="effect2_dropShadow"/><feBlend in="SourceGraphic" in2="effect2_dropShadow" result="shape"/><feColorMatrix in="SourceAlpha" values="0 0 0 0 0 0 0 0 0 0 0 0 0 0 0 0 0 0 127 0" result="hardAlpha"/><feOffset dy="4"/><feGaussianBlur stdDeviation="10"/><feComposite in2="hardAlpha" operator="arithmetic" k2="-1" k3="1"/><feColorMatrix values="0 0 0 0 1 0 0 0 0 0.364706 0 0 0 0 0.160784 0 0 0 0.6 0"/><feBlend in2="shape" result="effect3_innerShadow"/></filter></defs></svg>
